src/assets/Imgs/light/tip.svg

<svg fill="none" height="11" viewBox="0 0 11 11" width="11" xmlns="http://www.w3.org/2000/svg"><circle cx="5.4321" cy="5.4321" fill="#ff7193" r="5.4321"/><path d="m5.16331 6.7155-.16296-3.16149-.02445-.96963h.90445l-.02445.96963-.16296 3.16149zm.26889 2.00444c-.29334 0-.52963-.2037-.52963-.52963s.23629-.54593.52963-.54593c.28518 0 .52148.22.52148.54593s-.2363.52963-.52148.52963z" fill="#fff"/></svg>

<svg width="11" height="11" viewBox="0 0 11 11" fill="none" xmlns="http://www.w3.org/2000/svg">
<circle cx="5.4321" cy="5.4321" r="5.4321" fill="#FF7193"/>
<path d="M5.16331 6.7155L5.00035 3.55401L4.9759 2.58438H5.88035L5.8559 3.55401L5.69294 6.7155H5.16331ZM5.4322 8.71994C5.13886 8.71994 4.90257 8.51624 4.90257 8.19031C4.90257 7.86438 5.13886 7.64438 5.4322 7.64438C5.71738 7.64438 5.95368 7.86438 5.95368 8.19031C5.95368 8.51624 5.71738 8.71994 5.4322 8.71994Z" fill="white"/>
</svg>
